packages/vapor/resources/icons/svg/card-type-BarChart-horizontal.svg

<svg enable-background="new 0 0 32 32" viewBox="0 0 32 32" xmlns="http://www.w3.org/2000/svg"><g fill="#f38130"><path d="m7.03 24.996v-17.993c0-.554.449-1 1-1h.992c.554 0 1 .449 1 1v17.994c0 .554-.449 1-1 1h-.992c-.554-.001-1-.45-1-1"/><path d="m11 19v4h7l.001-4h-7m5.988 2.999h-4.981v-1.991h4.981z"/><path d="m11 9v4h10l.001-4h-10m8.988 2.999h-7.981v-1.991h7.981z"/><path d="m11 14v4h14l.001-4h-14m12.988 2.999h-11.982v-1.991h11.981v1.991z"/><path d="m32 30.006v-28.012c0-1.101-.893-1.994-1.994-1.994h-28.012c-1.101 0-1.994.893-1.994 1.994v28.012c0 1.101.893 1.994 1.994 1.994h28.012c1.101 0 1.994-.893 1.994-1.994zm-30-.006v-28h28v28z"/></g></svg>

<svg xmlns="http://www.w3.org/2000/svg" viewBox="0 0 32 32" enable-background="new 0 0 32 32">
  <g fill="#f38130">
    <path d="m7.03 24.996v-17.993c0-.554.449-1 1-1h.992c.554 0 1 .449 1 1v17.994c0 .554-.449 1-1 1h-.992c-.554-.001-1-.45-1-1"/>
    <path d="m11 19v4h7l.001-4h-7m5.988 2.999h-4.981v-1.991h4.981v1.991"/>
    <path d="m11 9v4h10l.001-4h-10m8.988 2.999h-7.981v-1.991h7.981v1.991"/>
    <path d="m11 14v4h14l.001-4h-14m12.988 2.999h-11.982v-1.991h11.981v1.991z"/>
    <path d="M32,30.006V1.994C32,0.893,31.107,0,30.006,0L1.994,0C0.893,0,0,0.893,0,1.994l0,28.012
			C0,31.107,0.893,32,1.994,32h28.012C31.107,32,32,31.107,32,30.006z M2,30V2h28v28H2z"/>
  </g>
</svg>
